dist/img/icon_43.svg

<?xml version="1.0" encoding="utf-8"?>
<!-- Generator: Adobe Illustrator 16.0.3, SVG Export Plug-In . SVG Version: 6.00 Build 0)  -->
<!DOCTYPE svg PUBLIC "-//W3C//DTD SVG 1.1//EN" "http://www.w3.org/Graphics/SVG/1.1/DTD/svg11.dtd">
<svg version="1.1" xmlns="http://www.w3.org/2000/svg" xmlns:xlink="http://www.w3.org/1999/xlink" x="0px" y="0px" width="20px"
	 height="20px" viewBox="0 0 20 20" enable-background="new 0 0 20 20" xml:space="preserve">
<g id="Ebene_1">
</g>
<g id="Ebene_4">
	<g>
		<path fill="#333333" d="M-4.424,2.788c-0.063,0-0.041,0.044-0.085,0c-6.912-6.914-11.187,3.105-14.977,2.202V4.99
			c-0.045-0.02-0.095-0.032-0.147-0.032C-19.836,4.958-20,5.123-20,5.325c0,0.132,0.072,0.242,0.175,0.307
			c0,0.002-0.001,0.004-0.002,0.006c1.413,0.854,5.223,2.262,6.994,2.262c3.196,0,6.019-1.602,7.711-4.046
			c-0.111,0.412-0.176,0.842-0.176,1.289c0,2.74,2.222,4.962,4.962,4.962c0.113,0,0.224-0.009,0.335-0.017
			C-0.151,5.693-1.547,2.788-4.424,2.788"/>
	</g>
	<g>
		<path fill="#333333" d="M13.804,6.67h1.837L20,18.68h-1.783l-1.254-3.598h-4.712l-1.302,3.598H9.282L13.804,6.67z M16.502,13.758
			l-1.85-5.306l-1.922,5.306H16.502z"/>
		<path fill="#333333" d="M12.093,15.042c-2.326-0.931-3.721-2.094-5.116-3.256c0,0,0.291,0.291,0,0
			c-1.396,1.162-4.651,3.022-4.651,3.022l-0.931-1.395c1.861-1.163,2.326-1.396,4.419-3.023C5.334,9.944,3.023,7.367,2.791,5.972
			h1.86c0.931,2.093,2.326,3.256,2.326,3.256c2.325-1.86,2.325-4.419,2.325-4.419h1.86c0,0-0.232,3.023-2.791,5.582l0,0
			c1.163,1.163,2.326,2.093,4.418,3.023L12.093,15.042z M0,4.809h13.023v-1.86H7.674V1.32H5.582v1.628H0V4.809z"/>
	</g>
	<path fill="#333333" d="M38.446,0H21.554C20.697,0,20,0.698,20,1.554v16.892C20,19.302,20.697,20,21.554,20h8.589h3.97h4.334
		C39.302,20,40,19.302,40,18.446V1.554C40,0.698,39.302,0,38.446,0z M31.161,18.99v-7.374h-2.475V9.798h2.475V7.162
		c0-1.042,0.298-1.89,0.868-2.454c0.549-0.542,1.354-0.829,2.316-0.829c0.676,0,1.26,0.033,1.715,0.066v1.6l-1.034,0
		c-1.925,0-1.946,1.43-1.946,1.9v2.353h2.79l-0.239,1.818H33.08v7.374H31.161z M38.99,18.446c0,0.3-0.245,0.544-0.544,0.544h-4.355
		v-6.363h2.429l0.5-3.839h-2.929V7.446c0-0.349,0.057-0.566,0.155-0.684c0.116-0.137,0.391-0.207,0.786-0.207l2.038-0.001v-3.51
		l-0.449-0.059c-0.229-0.03-1.144-0.117-2.282-0.117c-1.233,0-2.275,0.388-3.017,1.12c-0.768,0.758-1.171,1.855-1.171,3.173v1.626
		h-2.475v3.839h2.475v6.363h-8.598c-0.3,0-0.544-0.244-0.544-0.544V1.554c0-0.3,0.244-0.544,0.544-0.544h16.893
		c0.299,0,0.544,0.244,0.544,0.544V18.446z"/>
	<path fill="#F2F2F2" d="M38.446,20H21.554C20.697,20,20,20.698,20,21.554v16.892C20,39.302,20.697,40,21.554,40h8.589h3.97h4.334
		C39.302,40,40,39.302,40,38.446V21.554C40,20.698,39.302,20,38.446,20z M31.161,38.99v-7.374h-2.475v-1.818h2.475v-2.637
		c0-1.042,0.298-1.89,0.868-2.454c0.549-0.542,1.354-0.829,2.316-0.829c0.676,0,1.26,0.033,1.715,0.066v1.6l-1.034,0
		c-1.925,0-1.946,1.43-1.946,1.9v2.353h2.79l-0.239,1.818H33.08v7.374H31.161z M38.99,38.446c0,0.3-0.245,0.544-0.544,0.544h-4.355
		v-6.363h2.429l0.5-3.839h-2.929v-1.342c0-0.349,0.057-0.566,0.155-0.684c0.116-0.137,0.391-0.207,0.786-0.207l2.038-0.001v-3.51
		l-0.449-0.059c-0.229-0.03-1.144-0.117-2.282-0.117c-1.233,0-2.275,0.388-3.017,1.12c-0.768,0.758-1.171,1.855-1.171,3.173v1.626
		h-2.475v3.839h2.475v6.363h-8.598c-0.3,0-0.544-0.244-0.544-0.544V21.554c0-0.3,0.244-0.544,0.544-0.544h16.893
		c0.299,0,0.544,0.244,0.544,0.544V38.446z"/>
</g>
</svg>

<svg xmlns="http://www.w3.org/2000/svg" xmlns:xlink="http://www.w3.org/1999/xlink" viewBox="42 0 20 20"><defs><style>.a{clip-path:url(#b);}.b{fill:#333;}</style><clipPath id="b"><rect x="42" width="20" height="20"/></clipPath></defs><g id="a" class="a"><g transform="translate(42 -0.32)"><path class="b" d="M13.8,6.67h1.837L20,18.68H18.217l-1.254-3.6H12.251l-1.3,3.6H9.282Zm2.7,7.088-1.85-5.306L12.73,13.758H16.5Z"/><path class="b" d="M12.093,15.042a17.658,17.658,0,0,1-5.116-3.256h0a45.16,45.16,0,0,1-4.651,3.022L1.4,13.413A37.817,37.817,0,0,0,5.814,10.39c-.48-.446-2.791-3.023-3.023-4.418h1.86A9.692,9.692,0,0,0,6.977,9.228,6.113,6.113,0,0,0,9.3,4.809h1.86a9.714,9.714,0,0,1-2.791,5.582h0a13.356,13.356,0,0,0,4.418,3.023ZM0,4.809H13.023V2.949H7.674V1.32H5.582V2.948H0Z"/></g></g></svg>
